!!!COM: Bach, Johann Sebastian
!!!OTL: 183. Nun freut euch, lieben Christen, g'mein
!!!ONM: No. 183
!!!OCL: Erk
!!!SCA: BWV 388
!!!YOE: Riemenschneider, Albert
!!!OPR: 371 Harmonized Chorales and 69 Chorale Melodies with Figured Bass
!!!OPT: Bach Chorale Harmonizations
**harm	**root	**kern	**kern	**kern	**kern
!	!	!bass	!tenor	!alto	!sprno
*Iorgan	*Iorgan	*Iorgan	*Iorgan	*Iorgan	*Iorgan
*>[A,A,B]	*>[A,A,B]	*>[A,A,B]	*>[A,A,B]	*>[A,A,B]	*>[A,A,B]
*>norep[A,B]	*>norep[A,B]	*>norep[A,B]	*>norep[A,B]	*>norep[A,B]	*>norep[A,B]
*>A	*>A	*>A	*>A	*>A	*>A
*k[b-e-a-d-]	*k[b-e-a-d-]	*k[b-e-a-d-]	*k[b-e-a-d-]	*k[b-e-a-d-]	*k[b-e-a-d-]
*A-:	*A-:	*A-:	*A-:	*A-:	*A-:
*met(c)	*met(c)	*met(c)	*met(c)	*met(c)	*met(c)
*M4/4	*M4/4	*M4/4	*M4/4	*M4/4	*M4/4
*MM60	*MM60	*MM60	*MM60	*MM60	*MM60
I	4GG	8AA-	8c	4e-	4a-
.	.	8BB-	8B-	.	.
=1	=1	=1	=1	=1	=1
Ib	4GG	8C	4A-	4e-	4a-
.	.	8D-	.	.	.
V	4DD	8E-	4G	4B-	4e-
.	.	8D-	.	.	.
Ib	4GG	4C	[4A-	4e-	4a-
viib	4FF#	4BB-	8A-]	4b-	4dd-
.	.	.	8G	.	.
=2	=2	=2	=2	=2	=2
I	4GG	8AA-	4.A-	4e-	4cc
.	.	8C	.	.	.
V	4DD	4E-	.	8.e-	4b-
.	.	.	8G	.	.
.	.	.	.	16d-	.
I;	4GG;	4AA-;	4E-;	4c;	4a-;
vi	4EE	4F	4A-	8c	4a-
.	.	.	.	8d	.
=3	=3	=3	=3	=3	=3
V	8DD	4E-	8G	8e-	8b-
viioD7c/ii	8GG#	.	8A	8g-	8cc
ii	4AA	4BB-	4B-	8f	4dd-
.	.	.	.	8g	.
Ib	4GG	8C	8E-	4a-	4cc
.	.	8D-	8F	.	.
V	4DD	4E-	4G	8e-	4b-
.	.	.	.	16B-	.
.	.	.	.	16c	.
=4	=4	=4	=4	=4	=4
IV	4CC	8D-	4A-	2d-	4f
.	.	8C	.	.	.
viib	4FF#	4BB-	4B-	.	4g
I;	4GG;	4AA-;	4E-;	4c;	4a-;
=:|!	=:|!	=:|!	=:|!	=:|!	=:|!
*>B	*>B	*>B	*>B	*>B	*>B
!! Continuing.
I	4GG	8A-	4c	4e-	4a-
.	.	8G	.	.	.
=5	=5	=5	=5	=5	=5
IVb	8CC	8F	8f	8a-	4dd-
V7b	8DD	8G	8e-	[8b-	.
I	4GG	[4A-	4e-	8b-]	4cc
.	.	.	.	16a-	.
.	.	.	.	16g	.
V7d/V	4AA	8A-]	4d	4f	4b-
.	.	16B-	.	.	.
.	.	16A-	.	.	.
Vb	8DD	8G	4e-	8b-	4ee-
iii	8BB	8c	.	8g	.
=6	=6	=6	=6	=6	=6
!!linebreak: 2
vi7b	4EE	4A-	8c	8f	4ee-
.	.	.	8F	[8a-	.
V7/V	4AA	8B-	4B-	8a-]	4dd
.	.	8BB-	.	16g	.
.	.	.	.	16f	.
V;	4DD;	4E-;	4B-;	4g;	4ee-;
Ib	4GG	4C	[4e-	4a-	4ee-
=7	=7	=7	=7	=7	=7
IV	4CC	8D-	8e-]	4a-	4ff
.	.	8E-	16d-	.	.
.	.	.	16c	.	.
IVb	4CC	4F	8d-	4a-	4dd-
.	.	.	8f	.	.
Vb	8DD	8G	8e-	8b-	4.ee-
V7	8DD	8E-	8d-	8g	.
vi7	8EE	8F	8c	8a-	.
vii	8FF#	8G	8B-	[8b-	8dd-
=8	=8	=8	=8	=8	=8
I	4GG	4A-	16c	8b-]	4cc
.	.	.	16d-	.	.
.	.	.	4e-	4a-	.
V	4DD	4E-	.	.	4b-
.	.	.	8d-	8g	.
vi;	4EE;	4F;	4c;	4f;	4a-;
vi	4EE	4F	4A-	[4f	4cc
=9	=9	=9	=9	=9	=9
Vb	4DD	4G	4B-	8f]	4b-
.	.	.	.	16e-	.
.	.	.	.	16d-	.
I	4GG	8A-	8A-	4c	4e-
.	.	8G	8B-	.	.
vi	4EE	4F	4c	8f	4a-
.	.	.	.	8e-	.
ii	4AA	4BB-	4B-	8f	4dd-
.	.	.	.	8g	.
=10	=10	=10	=10	=10	=10
Ib	4GG	8C	[4e-	4.a-	4cc
.	.	8D-	.	.	.
V	4DD	4E-	8.e-]	.	4b-
.	.	.	.	8g	.
.	.	.	16d-	.	.
I;	4GG;	4AA-;	4c;	4e-;	4a-;
==	==	==	==	==	==
*-	*-	*-	*-	*-	*-
!!!CDT: 1685/3//-1750/7/28
!!!OCY: Deutschland
!!!AGN: chorale
!!!AST: Baroque
!!!AIN: vox
!!!YOY: 1941
!!!PPP: New York; London
!!!PPR: G. Schirmer
!!!ENC: David Huron
!!!EED: David Huron
!!!YEN: United States of America
!!!YER: 1992
!!!YEC: Copyright 1992 David Huron
!!!YEM: Rights to all derivative electronic formats reserved.
!!!YER: March 20, 1996
!!!AMT: simple quadruple
!!!EEV: 1.1
!!chor2scor: -l 2 -s 0.6 -o %b.pmx
